X: 18
T: Humours Of Glendart, The
Z: Filou
S: https://thesession.org/tunes/45#setting52379
R: jig
M: 6/8
L: 1/8
K: Dmaj
|:{c}BAF AFD|~F3 DFA|{c}BAF AFD|FED EFA|
{c}BAF AFD|~F3 DFA|dcB AFE|FD{A}D {F}D2 A:|
|:def d2B|ABA {B}AFA|def dAd|ede {a}fdB|
def d2B|ABA {B}ABc|dcB AFE|FD{A}D {F}D2 A:|

